X: 28
T:O Gylch y Ford Gron
M:4/4
L:1/8
Q:220
C:Trad
S:Blodau'r Grug Collection Vol. 2
A:Wales
Z:brian_martin12345@yahoo.com
K:D
de|f2f2f2a2|d2d2d2de|f2f2f2a2|e6cd|e2e2e2ge|c2c2c2cd|e2e2e2a2|
1f6:||2d6||]!
cd|e3cd3B|c3AB3^G|A2a2a2a2|a6ef|g2g2f2f2|e2e2d2d2|c2d2g2f2|e6de|!
f2f2f2a2|d2d2d2de|f2f2f2a2|e6cd|e3cd3B|c3AB3^G|A2a2a2c2|d6||

